img/chacked.svg

<svg width="28" height="24" viewBox="0 0 28 24" fill="none" xmlns="http://www.w3.org/2000/svg">
<path d="M2.99229 12.767C2.37104 12.219 1.42315 12.2783 0.87512 12.8996C0.327092 13.5209 0.386453 14.4687 1.00771 15.0168L2.99229 12.767ZM11.1915 22L10.1992 23.1249C10.5142 23.4028 10.9314 23.5358 11.3491 23.4917C11.7669 23.4475 12.147 23.2302 12.397 22.8926L11.1915 22ZM27.2055 2.8926C27.6985 2.22681 27.5584 1.28745 26.8926 0.794482C26.2268 0.301515 25.2874 0.441615 24.7945 1.1074L27.2055 2.8926ZM1.00771 15.0168L10.1992 23.1249L12.1838 20.8751L2.99229 12.767L1.00771 15.0168ZM12.397 22.8926L27.2055 2.8926L24.7945 1.1074L9.98597 21.1074L12.397 22.8926Z" fill="#6D31D0"/>
</svg>

<svg width="28" height="24" viewBox="0 0 28 24" fill="none" xmlns="http://www.w3.org/2000/svg"><path d="M2.992 12.767a1.5 1.5 0 10-1.984 2.25l1.984-2.25zm8.2 9.233l-.993 1.125a1.5 1.5 0 002.198-.232L11.191 22zM27.206 2.893a1.5 1.5 0 10-2.412-1.786l2.412 1.786zM1.008 15.017l9.191 8.108 1.985-2.25-9.192-8.108-1.984 2.25zm11.389 7.876l14.809-20-2.412-1.786-14.808 20 2.411 1.786z" fill="#6D31D0"/></svg>
